!!!OTL: VOGEL FIKS UND VOGEL FAKS
!!!ARE: Europa, Mitteleuropa, Deutschland; France, Elsass
!!!SCT: E0623
!!!YEM: Copyright 1995, estate of Helmut Schaffrath.
**kern
*ICvox
*Ivox
*M3/4
*k[b-]
*F:
{8cc
8cc
=1
4dd
4cc
8b-
8b-
=2
4a
4cc}
{4a
=3
4g
4b-
4g
=4
4a
4cc}
{4a
=5
4dd
4cc
4b-
=6
4a
4cc}
{8a
8a
=7
4g
4b-
4g
=8
4f
4r}
==
!!!AGN: Liebes - Lied
!!!ONB: ESAC (Essen Associative Code) Database: ERK2
!!!AMT: simple triple
!!!AIN: vox
!!!EED: Helmut Schaffrath
!!!EEV: 1.0
*-
